X:1
T:Title
%%score { ( 1 4 ) | ( 2 3 ) }
L:1/8
M:3/4
K:C
V:1 treble nm="Grand Piano"
V:4 treble 
V:2 bass 
V:3 bass 
V:1
 z2 z[Q:1/4=90] [EG] [CE][DF] | [EG]3 [Ec] [CE][FA] | [EG]3 [CE] [EG][Ec] | [Ge]3 [EG] [Gc][Ge] | %4
[M:3/8] [Fd]3 | [EG][CE][DF] |[M:3/4] [EG]3 [Ec] [FB][Gc] | A3 A dc | BA G2 d2 |[M:2/4] [CEc]4 | %10
[M:4/4] z4 (3[B,D]DD D>d | z2 c6 | z2 e6 | z2 d6 | z2 F6 | .F2 A6 | %16
 (3A[Ac][^Gd] e2- ec e2[Q:1/4=87][Q:1/4=84][Q:1/4=82][Q:1/4=79][Q:1/4=76][Q:1/4=73][Q:1/4=70] | %17
[M:5/8] d2 [Ec]3- | [Ec]2 z z2 |] %19
V:2
 z2 z [C,G,] [C,G,][C,G,] | [C,C]3 [C,G,] [C,G,][C,C] | [C,C]3 [C,G,] [C,G,][C,G,] | %3
 [C,C]3 [C,C] [E,C][C,C] |[M:3/8] [G,B,]3 | [C,C][C,G,][C,G,] |[M:3/4] [C,C]3 [C,G,] [D,G,][E,C] | %7
 [F,CF]3 [F,CF] [F,A,F][F,DF] | [G,DF][G,CF] [G,B,F]2 [G,B,F]2 |[M:2/4][K:bass] C,4 | %10
[M:4/4][K:treble] z2 F6[K:bass] | z2 z z/ [C,G,]/ [F,A,]>[F,A,] [C,G,]2 | %12
 z4 (3[C,C][C,C][C,C] [C,C]2 | z2 z z/ [G,B,]/ [G,B,]>[G,B,] [G,B,]2 | z4 (3G,,B,,D, G,2 | %15
 (3G,C,E, [F,CF]2 (3[F,C][F,C][F,C] [F,C]>[F,CF] | %16
 (3[F,CF][F,C][F,C][K:treble] [G,CG]2- [G,CG][G,CE] [G,CG]2 |[M:5/8] [G,B,F]2[K:bass] [C,C]3- | %18
 [C,C]2 z z2 |] %19
V:3
 x6 | x6 | x6 | x6 |[M:3/8] x3 | x3 |[M:3/4] x6 | x6 | x6 |[M:2/4][K:bass] x4 | %10
[M:4/4][K:treble] (3GAE z2[K:bass] (3G,,[B,,B,][D,B,] [G,B,]2 | x8 | x8 | x8 | x8 | x8 | %16
 x2[K:treble] x6 |[M:5/8] x2[K:bass] x3 | x5 |] %19
V:4
 x6 | x6 | x6 | x6 |[M:3/8] x3 | x3 |[M:3/4] x6 | x6 | x6 |[M:2/4] x4 |[M:4/4] x8 | %11
 d>B z z/ E/ F>F E2 | (3Gcd z2 (3GGG G>d | c>c z z/ G/ G>G G2 | (3dcE z2 (3[B,D][B,D][B,D] [B,D]2 | %15
 (3[B,G][CEc][CGB] z2 (3FFF F>A | x8 |[M:5/8] x5 | x5 |] %19

